SVG/power-off.svg

<?xml version="1.0" encoding="utf-8"?>
<!-- Generated by IcoMoon.io -->
<!DOCTYPE svg PUBLIC "-//W3C//DTD SVG 1.1//EN" "http://www.w3.org/Graphics/SVG/1.1/DTD/svg11.dtd">
<svg version="1.1" xmlns="http://www.w3.org/2000/svg" xmlns:xlink="http://www.w3.org/1999/xlink" width="12" height="14" viewBox="0 0 12 14">
<path fill="#444444" d="M12 7q0 1.219-0.477 2.328t-1.281 1.914-1.914 1.281-2.328 0.477-2.328-0.477-1.914-1.281-1.281-1.914-0.477-2.328q0-1.422 0.629-2.68t1.77-2.109q0.336-0.25 0.746-0.195t0.652 0.391q0.25 0.328 0.191 0.738t-0.387 0.66q-0.766 0.578-1.184 1.414t-0.418 1.781q0 0.813 0.316 1.551t0.855 1.277 1.277 0.855 1.551 0.316 1.551-0.316 1.277-0.855 0.855-1.277 0.316-1.551q0-0.945-0.418-1.781t-1.184-1.414q-0.328-0.25-0.387-0.66t0.191-0.738q0.242-0.336 0.656-0.391t0.742 0.195q1.141 0.852 1.77 2.109t0.629 2.68zM7 1v5q0 0.406-0.297 0.703t-0.703 0.297-0.703-0.297-0.297-0.703v-5q0-0.406 0.297-0.703t0.703-0.297 0.703 0.297 0.297 0.703z"></path>
</svg>

<svg xmlns="http://www.w3.org/2000/svg" viewBox="0 0 12 14"><path d="M12 7q0 1.22-.477 2.328t-1.28 1.914-1.915 1.28T6 13t-2.328-.477-1.914-1.28-1.28-1.915T0 7q0-1.422.63-2.68T2.4 2.21q.335-.25.745-.194t.652.39q.25.33.19.74t-.386.66q-.765.577-1.183 1.413T2 7q0 .813.315 1.55T3.17 9.83t1.277.855 1.55.316 1.552-.317 1.276-.855.855-1.277T9.998 7q0-.945-.418-1.78T8.394 3.804q-.328-.25-.387-.66t.19-.738q.243-.336.657-.39t.742.194q1.14.853 1.77 2.11t.63 2.68zM7 1v5q0 .406-.297.703T6 7t-.703-.297T5 6V1q0-.406.297-.703T6 0t.703.297T7 1z" /></svg>
